styles/2/Numix/32/places/orange-folder-wine.svg

<?xml version="1.0" encoding="UTF-8" standalone="no"?>
<svg
   xmlns:dc="http://purl.org/dc/elements/1.1/"
   xmlns:cc="http://creativecommons.org/ns#"
   xmlns:rdf="http://www.w3.org/1999/02/22-rdf-syntax-ns#"
   xmlns:svg="http://www.w3.org/2000/svg"
   xmlns="http://www.w3.org/2000/svg"
   xmlns:sodipodi="http://sodipodi.sourceforge.net/DTD/sodipodi-0.dtd"
   xmlns:inkscape="http://www.inkscape.org/namespaces/inkscape"
   width="32"
   height="32"
   viewBox="0 0 32 32"
   id="svg3153"
   version="1.1"
   inkscape:version="0.91 r"
   sodipodi:docname="orange-folder-wine.svg">
  <metadata
     id="metadata3173">
    <rdf:RDF>
      <cc:Work
         rdf:about="">
        <dc:format>image/svg+xml</dc:format>
        <dc:type
           rdf:resource="http://purl.org/dc/dcmitype/StillImage" />
      </cc:Work>
    </rdf:RDF>
  </metadata>
  <defs
     id="defs3171" />
  <sodipodi:namedview
     pagecolor="#ffffff"
     bordercolor="#666666"
     borderopacity="1"
     objecttolerance="10"
     gridtolerance="10"
     guidetolerance="10"
     inkscape:pageopacity="0"
     inkscape:pageshadow="2"
     inkscape:window-width="1280"
     inkscape:window-height="998"
     id="namedview3169"
     showgrid="false"
     inkscape:zoom="10.429825"
     inkscape:cx="-6.3160221"
     inkscape:cy="2.9172842"
     inkscape:window-x="0"
     inkscape:window-y="0"
     inkscape:window-maximized="1"
     inkscape:current-layer="svg3153" />
  <path
     style="font-size:medium;font-style:normal;font-variant:normal;font-weight:normal;font-stretch:normal;text-indent:0;text-align:start;text-decoration:none;line-height:normal;letter-spacing:normal;word-spacing:normal;text-transform:none;direction:ltr;block-progression:tb;writing-mode:lr-tb;text-anchor:start;baseline-shift:baseline;color:#000000;fill:#f57c00;fill-opacity:1;fill-rule:nonzero;stroke:none;stroke-width:1;marker:none;visibility:visible;display:inline;overflow:visible;enable-background:accumulate;font-family:Sans;-inkscape-font-specification:Sans"
     d="m 4,3.9999995 c -0.4916,0 -1,0.4731187 -1,1 l 0,1 c -0.666666,0 -0.833333,0 -1.5,0 -0.979161,0 -1.5,0.4940342 -1.5,1.5 L 0,26.5 C 0,27.531461 0.523069,28 1.5,28 l 28.84375,0 C 31.21572,28 32,27.376781 32,26.5 L 32,9.4999995 c 0,-0.9413229 -0.425107,-1.5 -1.5,-1.5 l -2.5,0 0,-3 c 0,-0.5268813 -0.5084,-1 -1,-1 z"
     id="path3004"
     inkscape:connector-curvature="0"
     sodipodi:nodetypes="ssccssssscccsss" />
  <path
     style="font-size:medium;font-style:normal;font-variant:normal;font-weight:normal;font-stretch:normal;text-indent:0;text-align:start;text-decoration:none;line-height:normal;letter-spacing:normal;word-spacing:normal;text-transform:none;direction:ltr;block-progression:tb;writing-mode:lr-tb;text-anchor:start;baseline-shift:baseline;color:#000000;fill:#000000;fill-opacity:0.32156863;fill-rule:nonzero;stroke:none;stroke-width:1;marker:none;visibility:visible;display:inline;overflow:visible;enable-background:accumulate;font-family:Sans;-inkscape-font-specification:Sans"
     d="m 4,3.9999995 c -0.4916,0 -1,0.4731186 -1,1 l 0,1 c -0.686803,0 -0.883535,0 -1.5,0 -0.979161,0 -1.5,0.4829856 -1.5,1.5 L 0,26.5 C 0,27.503839 0.500972,28 1.5,28 l 28.84375,0 C 31.21572,28 32,27.376781 32,26.5 L 32,9.5517762 C 32,8.5377935 31.580916,7.9999995 30.5,7.9999995 l -2.5,0 0,-3 c 0,-0.5268814 -0.5084,-1 -1,-1 z m 15,3 0,2 12,0 L 31,27 1,27 1,6.9999995 z"
     id="path3784"
     inkscape:connector-curvature="0"
     sodipodi:nodetypes="ssccssssscccsssccccccc" />
  <path
     style="line-height:normal;color:#000000;fill:#000000;fill-opacity:0.32156863"
     id="path3974"
     d="m 20.519813,12.0008 c -0.518192,0.01 -1.027972,0.3267 -1.109557,0.9207 -0.130536,0.9505 0.848485,0.594 1.631702,0.594 0.783216,0 1.044288,1.5445 0.848485,2.3761 -0.195805,0.8317 -2.277579,2.7961 -6.983684,0.8317 C 11.032148,15.106 9.097626,17.2594 9,17.3025 9.366686,20.5155 12.356353,24 15.983682,24 19.858687,24 23,20.1609 23,16.6342 c 0,-0.4051 -0.0513,-0.804 -0.130537,-1.1881 -0.07205,-0.1941 -0.142906,-0.3877 -0.195803,-0.5643 -0.09482,-0.3164 -0.201904,-0.5834 -0.293707,-0.8317 -0.004,-0.01 0.004,-0.022 0,-0.03 -0.370929,-0.7497 -0.890988,-1.4275 -1.533799,-1.99 -0.0029,-0.01 -0.01343,0.01 -0.01632,0 -0.100452,-0.024 -0.206385,-0.031 -0.310024,-0.03 z"
     inkscape:connector-curvature="0" />
  <path
     style="line-height:normal;color:#000000;fill:#000000;fill-opacity:0.32156863"
     id="path3976"
     d="M 19,15.0001 C 19,15.5524 18.552285,16 18,16 17.447715,16 17,15.5524 17,15.0001 17,14.4478 17.447715,14 18,14 c 0.552285,0 1,0.4478 1,1.0001 z"
     inkscape:connector-curvature="0" />
  <path
     style="line-height:normal;color:#000000;fill:#000000;fill-opacity:0.32156863"
     id="path3978"
     d="M 16,13.5 C 16,13.7762 15.776142,14 15.5,14 15.223858,14 15,13.7762 15,13.5 15,13.2238 15.223858,13 15.5,13 c 0.276142,0 0.5,0.2238 0.5,0.5 z"
     inkscape:connector-curvature="0" />
</svg>

<svg xmlns="http://www.w3.org/2000/svg" viewBox="0 0 32 32">
 <path d="m 4 4 c -0.492 0 -1 0.473 -1 1 l 0 1 c -0.667 0 -0.833 0 -1.5 0 -0.979 0 -1.5 0.494 -1.5 1.5 l 0 19 c 0 1.031 0.523 1.5 1.5 1.5 l 28.844 0 c 0.872 0 1.656 -0.623 1.656 -1.5 l 0 -17 c 0 -0.941 -0.425 -1.5 -1.5 -1.5 l -2.5 0 0 -3 c 0 -0.527 -0.508 -1 -1 -1 z" style="visibility:visible;fill:#f57c00;fill-opacity:1;stroke:none;display:inline;color:#000;fill-rule:nonzero"/>
 <path d="m 4 4 c -0.492 0 -1 0.473 -1 1 l 0 1 c -0.687 0 -0.884 0 -1.5 0 -0.979 0 -1.5 0.483 -1.5 1.5 l 0 19 c 0 1 0.501 1.5 1.5 1.5 l 28.844 0 c 0.872 0 1.656 -0.623 1.656 -1.5 l 0 -16.948 c 0 -1.014 -0.419 -1.552 -1.5 -1.552 l -2.5 0 0 -3 c 0 -0.527 -0.508 -1 -1 -1 z m 15 3 0 2 12 0 l 0 18 -30 0 0 -20 z" style="visibility:visible;fill:#000;fill-opacity:0.322;stroke:none;display:inline;color:#000;fill-rule:nonzero"/>
 <path d="m 20.52 12 c -0.518 0.01 -1.028 0.327 -1.11 0.921 -0.131 0.95 0.848 0.594 1.632 0.594 0.783 0 1.044 1.544 0.848 2.376 -0.196 0.832 -2.278 2.796 -6.984 0.832 c -3.875 -1.617 -5.809 0.536 -5.907 0.579 0.367 3.213 3.356 6.698 6.984 6.698 3.875 0 7.02 -3.839 7.02 -7.366 c 0 -0.405 -0.051 -0.804 -0.131 -1.188 -0.072 -0.194 -0.143 -0.388 -0.196 -0.564 -0.095 -0.316 -0.202 -0.583 -0.294 -0.832 -0.004 -0.01 0.004 -0.022 0 -0.03 -0.371 -0.75 -0.891 -1.428 -1.534 -1.99 -0.003 -0.01 -0.013 0.01 -0.016 0 -0.1 -0.024 -0.206 -0.031 -0.31 -0.03 z" style="fill:#000;fill-opacity:0.322;color:#000"/>
 <path d="m 19 15 c 0 0.552 -0.448 1 -1 1 -0.552 0 -1 -0.448 -1 -1 0 -0.552 0.448 -1 1 -1 c 0.552 0 1 0.448 1 1 z" style="fill:#000;fill-opacity:0.322;color:#000"/>
 <path d="m 16 13.5 c 0 0.276 -0.224 0.5 -0.5 0.5 -0.276 0 -0.5 -0.224 -0.5 -0.5 0 -0.276 0.224 -0.5 0.5 -0.5 c 0.276 0 0.5 0.224 0.5 0.5 z" style="fill:#000;fill-opacity:0.322;color:#000"/>
</svg>
